;FLAVOR:Marlin
;TIME:16469
;Filament used: 13.8085m
;Layer height: 0.2
;MINX:37.536
;MINY:23.353
;MINZ:0.2
;MAXX:197.464
;MAXY:103.952
;MAXZ:98
;Generated with Cura_SteamEngine 5.2.2
M140 S60
M105
M190 S60
M104 S205
M105
M109 S205
M82 ;absolute extrusion mode
; Ender 3 Custom Start G-code
G92 E0 ; Reset Extruder
G28 ; Home all axes
G1 Z2.0 F3000 ; Move Z Axis up little to prevent scratching of Heat Bed
G1 X0.1 Y20 Z0.3 F5000.0 ; Move to start position
G1 X0.1 Y200.0 Z0.3 F1500.0 E15 ; Draw the first line
G1 X0.4 Y200.0 Z0.3 F5000.0 ; Move to side a little
G1 X0.4 Y20 Z0.3 F1500.0 E30 ; Draw the second line
G92 E0 ; Reset Extruder
G1 Z2.0 F3000 ; Move Z Axis up little to prevent scratching of Heat Bed
G1 X5 Y20 Z0.3 F5000.0 ; Move over to prevent blob squish
G92 E0
G92 E0
G1 F2700 E-5
;LAYER_COUNT:490
;LAYER:0
M107
G0 F6000 X45.481 Y54.226 Z0.2
;TYPE:SKIRT
G1 F2700 E0
G1 F1200 X72.822 Y26.892 E1.28587
G1 X73.27 Y26.478 E1.30616
G1 X73.531 Y26.255 E1.31758
G1 X74.028 Y25.864 E1.33861
G1 X74.342 Y25.637 E1.3515
G1 X74.876 Y25.283 E1.37281
G1 X75.22 Y25.075 E1.38618
G1 X75.792 Y24.762 E1.40786
G1 X76.145 Y24.587 E1.42097
G1 X76.707 Y24.335 E1.44145
G1 X77.176 Y24.147 E1.45826
G1 X78.116 Y23.838 E1.49117
G1 X78.624 Y23.706 E1.50863
G1 X79.268 Y23.567 E1.53054
G1 X79.653 Y23.501 E1.54353
G1 X80.282 Y23.419 E1.56463
G1 X80.688 Y23.383 E1.57819
G1 X81.378 Y23.353 E1.60116
G1 X153.692 Y23.359 E4.00633
G1 X154.381 Y23.39 E4.02927
G1 X154.719 Y23.42 E4.04056
G1 X155.347 Y23.501 E4.06162
G1 X155.732 Y23.567 E4.07461
G1 X156.376 Y23.706 E4.09652
G1 X156.884 Y23.838 E4.11398
G1 X157.822 Y24.146 E4.14682
G1 X158.289 Y24.333 E4.16355
G1 X158.854 Y24.586 E4.18414
G1 X159.209 Y24.762 E4.19732
G1 X159.796 Y25.085 E4.2196
G1 X160.222 Y25.344 E4.23618
G1 X160.977 Y25.866 E4.26671
G1 X161.345 Y26.154 E4.28225
G1 X161.844 Y26.58 E4.30408
G1 X162.346 Y27.053 E4.32702
G1 X189.669 Y54.377 E5.61223
G1 X190.144 Y54.897 E5.63566
G1 X190.4 Y55.204 E5.64895
G1 X190.769 Y55.683 E5.66906
G1 X191.053 Y56.083 E5.68538
G1 X191.583 Y56.943 E5.71898
G1 X191.877 Y57.497 E5.73984
G1 X192.272 Y58.365 E5.77156
G1 X192.45 Y58.83 E5.78812
G1 X192.658 Y59.452 E5.80993
G1 X192.769 Y59.836 E5.82322
G1 X192.917 Y60.433 E5.84368
G1 X193.016 Y60.915 E5.86005
G1 X193.15 Y61.864 E5.89192
G1 X193.185 Y62.303 E5.90657
G1 X193.21 Y62.922 E5.92718
G1 X193.213 Y84.394 E6.64134
G1 X193.41 Y84.495 E6.6487
G1 X194.073 Y84.924 E6.67497
G1 X194.688 Y85.418 E6.7012
G1 X195.251 Y85.972 E6.72747
G1 X195.755 Y86.581 E6.75377
G1 X196.366 Y87.537 E6.7915
G1 X196.525 Y87.831 E6.80262
G1 X196.865 Y88.543 E6.82886
G1 X197.131 Y89.287 E6.85514
G1 X197.321 Y90.053 E6.88139
G1 X197.432 Y90.835 E6.90766
G1 X197.464 Y91.541 E6.93117
G1 X197.464 Y96.152 E7.08453
G1 X197.424 Y96.941 E7.11081
G1 X197.305 Y97.721 E7.13705
G1 X197.107 Y98.486 E7.16333
G1 X196.833 Y99.226 E7.18958
G1 X196.485 Y99.935 E7.21585
G1 X196.067 Y100.606 E7.24214
G1 X195.584 Y101.23 E7.26838
G1 X195.041 Y101.803 E7.29464
G1 X194.442 Y102.318 E7.32091
G1 X193.794 Y102.769 E7.34717
G1 X193.103 Y103.153 E7.37347
G1 X192.378 Y103.465 E7.39972
G1 X191.625 Y103.702 E7.42597
G1 X190.851 Y103.861 E7.45226
G1 X190.066 Y103.942 E7.4785
G1 X189.664 Y103.952 E7.49188
G1 X45.336 Y103.952 E12.29225
G1 X44.547 Y103.912 E12.31852
G1 X43.767 Y103.793 E12.34477
G1 X43.002 Y103.595 E12.37105
G1 X42.262 Y103.321 E12.39729
G1 X41.553 Y102.973 E12.42356
G1 X40.882 Y102.555 E12.44986
G1 X40.258 Y102.072 E12.4761
G1 X39.685 Y101.529 E12.50236
G1 X39.17 Y100.93 E12.52863
G1 X38.719 Y100.282 E12.55489
G1 X38.335 Y99.591 E12.58118
G1 X38.023 Y98.866 E12.60744
G1 X37.786 Y98.113 E12.63369
G1 X37.627 Y97.339 E12.65997
G1 X37.546 Y96.554 E12.68622
G1 X37.536 Y96.149 E12.69969
G1 X37.538 Y91.486 E12.85479
G1 X37.578 Y90.697 E12.88106
G1 X37.698 Y89.916 E12.90734
G1 X37.896 Y89.152 E12.93359
G1 X38.171 Y88.412 E12.95985
G1 X38.582 Y87.591 E12.99039
G1 X38.732 Y87.331 E13.00037
G1 X39.16 Y86.668 E13.02662
G1 X39.654 Y86.052 E13.05288
G1 X40.207 Y85.488 E13.07915
G1 X40.815 Y84.984 E13.10542
G1 X41.47 Y84.543 E13.13168
G1 X41.786 Y84.374 E13.1436
G1 X41.787 Y63.063 E13.85241
G1 X41.813 Y62.335 E13.87664
G1 X41.87 Y61.696 E13.89797
G1 X41.917 Y61.337 E13.91002
G1 X42.025 Y60.71 E13.93118
G1 X42.111 Y60.31 E13.94479
G1 X42.275 Y59.68 E13.96644
G1 X42.397 Y59.279 E13.98038
G1 X42.612 Y58.666 E14.00199
G1 X42.76 Y58.294 E14.0153
G1 X43.024 Y57.701 E14.03689
G1 X43.245 Y57.257 E14.05339
G1 X43.721 Y56.431 E14.08509
G1 X43.998 Y56.012 E14.1018
G1 X44.383 Y55.481 E14.12362
G1 X44.608 Y55.196 E14.13569
G1 X45.009 Y54.727 E14.15622
G1 X45.481 Y54.226 E14.17911
G0 F6000 X45.764 Y54.509
G1 F1200 X73.105 Y27.175 E15.46498
G1 X73.53 Y26.782 E15.48423
G1 X73.791 Y26.559 E15.49565
G1 X74.263 Y26.188 E15.51562
G1 X74.577 Y25.961 E15.52851
G1 X75.083 Y25.626 E15.54869
G1 X75.427 Y25.418 E15.56206
G1 X75.969 Y25.12 E15.58263
G1 X76.322 Y24.945 E15.59574
G1 X76.856 Y24.706 E15.6152
G1 X77.325 Y24.518 E15.632
G1 X78.217 Y24.225 E15.66323
G1 X78.725 Y24.093 E15.68069
G1 X79.336 Y23.961 E15.70148
G1 X79.721 Y23.895 E15.71447
G1 X80.317 Y23.818 E15.73446
G1 X80.723 Y23.782 E15.74801
G1 X81.378 Y23.753 E15.76982
G1 X153.692 Y23.759 E18.17499
G1 X154.345 Y23.788 E18.19673
G1 X154.683 Y23.818 E18.20802
G1 X155.279 Y23.895 E18.22801
G1 X155.664 Y23.961 E18.241
G1 X156.275 Y24.093 E18.26179
G1 X156.783 Y24.225 E18.27925
G1 X157.673 Y24.517 E18.3104
G1 X158.14 Y24.704 E18.32713
G1 X158.676 Y24.944 E18.34667
G1 X159.031 Y25.12 E18.35985
G1 X159.588 Y25.427 E18.381
G1 X160.014 Y25.686 E18.39758
G1 X160.731 Y26.181 E18.42656
G1 X161.099 Y26.469 E18.4421
G1 X161.572 Y26.873 E18.46279
G1 X162.063 Y27.336 E18.48524
G1 X189.386 Y54.66 E19.77045
G1 X189.836 Y55.153 E19.79265
G1 X190.092 Y55.46 E19.80595
G1 X190.443 Y55.915 E19.82506
G1 X190.727 Y56.315 E19.84138
G1 X191.23 Y57.13 E19.87323
G1 X191.524 Y57.684 E19.89409
G1 X191.898 Y58.508 E19.92419
G1 X192.076 Y58.973 E19.94075
G1 X192.274 Y59.563 E19.96145
G1 X192.385 Y59.947 E19.97474
G1 X192.525 Y60.513 E19.99414
G1 X192.624 Y60.995 E20.0105
G1 X192.752 Y61.896 E20.04077
G1 X192.787 Y62.335 E20.05542
G1 X192.81 Y62.922 E20.07496
G1 X192.813 Y84.638 E20.79723
G1 X193.244 Y84.861 E20.81337
G1 X193.887 Y85.284 E20.83897
G1 X194.482 Y85.771 E20.86455
G1 X195.024 Y86.317 E20.89013
G1 X195.506 Y86.917 E20.91573
G1 X196.014 Y87.727 E20.94753
G1 X196.173 Y88.021 E20.95865
G1 X196.503 Y88.715 E20.98421
G1 X196.76 Y89.441 E21.00982
G1 X196.939 Y90.188 E21.03537
G1 X197.04 Y90.951 E21.06097
G1 X197.064 Y91.541 E21.08061
G1 X197.064 Y96.152 E21.23397
G1 X197.024 Y96.92 E21.25955
G1 X196.905 Y97.68 E21.28514
G1 X196.707 Y98.423 E21.31071
G1 X196.433 Y99.142 E21.3363
G1 X196.086 Y99.828 E21.36187
G1 X195.67 Y100.475 E21.38746
G1 X195.189 Y101.075 E21.41303
G1 X194.648 Y101.622 E21.43862
G1 X194.053 Y102.11 E21.46422
G1 X193.411 Y102.533 E21.48979
G1 X192.728 Y102.888 E21.51539
G1 X192.013 Y103.169 E21.54094
G1 X191.271 Y103.375 E21.56655
G1 X190.513 Y103.503 E21.59212
G1 X189.664 Y103.552 E21.62041
G1 X45.336 Y103.552 E26.42078
G1 X44.568 Y103.512 E26.44635
G1 X43.808 Y103.393 E26.47194
G1 X43.065 Y103.195 E26.49751
G1 X42.346 Y102.921 E26.52311
G1 X41.66 Y102.574 E26.54868
G1 X41.013 Y102.158 E26.57426
G1 X40.413 Y101.677 E26.59984
G1 X39.866 Y101.136 E26.62542
G1 X39.378 Y100.541 E26.65102
G1 X38.955 Y99.899 E26.67659
G1 X38.6 Y99.216 E26.70219
G1 X38.319 Y98.501 E26.72774
G1 X38.113 Y97.759 E26.75336
G1 X37.985 Y97.001 E26.77892
G1 X37.936 Y96.149 E26.80731
G1 X37.938 Y91.486 E26.9624
G1 X37.978 Y90.718 E26.98798
G1 X38.098 Y89.958 E27.01357
G1 X38.296 Y89.215 E27.03915
G1 X38.57 Y88.496 E27.06474
G1 X38.928 Y87.791 E27.09104
G1 X39.078 Y87.531 E27.10102
G1 X39.497 Y86.886 E27.1266
G1 X39.98 Y86.287 E27.15219
G1 X40.523 Y85.742 E27.17778
G1 X41.119 Y85.256 E27.20336
G1 X41.762 Y84.835 E27.22892
G1 X42.186 Y84.617 E27.24478
G1 X42.187 Y63.063 E27.96167
G1 X42.213 Y62.354 E27.98527
G1 X42.267 Y61.748 E28.0055
G1 X42.314 Y61.389 E28.01754
G1 X42.416 Y60.795 E28.03759
G1 X42.502 Y60.395 E28.0512
G1 X42.657 Y59.796 E28.07178
G1 X42.779 Y59.395 E28.08572
G1 X42.983 Y58.813 E28.10623
G1 X43.131 Y58.441 E28.11955
G1 X43.382 Y57.88 E28.13999
G1 X43.603 Y57.436 E28.15648
G1 X44.055 Y56.652 E28.18658
G1 X44.332 Y56.233 E28.20329
G1 X44.697 Y55.729 E28.22399
G1 X44.922 Y55.444 E28.23606
G1 X45.303 Y54.999 E28.25555
G1 X45.764 Y54.509 E28.27792
G0 F6000 X46.047 Y54.792
G1 F1200 X73.388 Y27.458 E29.5638
G1 X73.79 Y27.086 E29.58201
G1 X74.051 Y26.863 E29.59343
G1 X74.497 Y26.512 E29.61231
G1 X74.811 Y26.285 E29.62519
G1 X75.29 Y25.968 E29.6443
G1 X75.634 Y25.76 E29.65767
G1 X76.147 Y25.478 E29.67714
G1 X76.5 Y25.303 E29.69024
G1 X77.004 Y25.078 E29.7086
G1 X77.473 Y24.89 E29.72541
G1 X78.318 Y24.612 E29.75499
G1 X78.826 Y24.48 E29.77245
G1 X79.403 Y24.356 E29.79208
G1 X79.788 Y24.29 E29.80507
G1 X80.353 Y24.216 E29.82402
G1 X80.759 Y24.18 E29.83758
G1 X81.378 Y24.153 E29.85819
G1 X153.692 Y24.159 E32.26336
G1 X154.31 Y24.186 E32.28394
G1 X154.648 Y24.216 E32.29522
G1 X155.212 Y24.29 E32.31414
G1 X155.597 Y24.356 E32.32713
G1 X156.174 Y24.48 E32.34676
G1 X156.682 Y24.612 E32.36422
G1 X157.524 Y24.889 E32.3937
G1 X157.991 Y25.076 E32.41043
G1 X158.498 Y25.302 E32.4289
G1 X158.853 Y25.478 E32.44208
G1 X159.381 Y25.769 E32.46213
G1 X159.807 Y26.028 E32.47871
G1 X160.484 Y26.496 E32.50608
G1 X160.852 Y26.784 E32.52162
G1 X161.3 Y27.166 E32.54121
G1 X161.78 Y27.618 E32.56314
G1 X189.103 Y54.942 E33.84835
G1 X189.529 Y55.409 E33.86937
G1 X189.785 Y55.716 E33.88267
G1 X190.117 Y56.147 E33.90076
G1 X190.401 Y56.547 E33.91708
G1 X190.876 Y57.318 E33.9472
G1 X191.17 Y57.872 E33.96806
G1 X191.524 Y58.651 E33.99652
G1 X191.702 Y59.116 E34.01308
G1 X191.89 Y59.674 E34.03266
G1 X192.001 Y60.058 E34.04596
G1 X192.133 Y60.594 E34.06432
G1 X192.232 Y61.076 E34.08068
G1 X192.353 Y61.928 E34.10931
G1 X192.388 Y62.367 E34.12395
G1 X192.41 Y62.922 E34.14243
G1 X192.413 Y84.879 E34.87272
G1 X193.077 Y85.227 E34.89765
G1 X193.699 Y85.643 E34.92254
G1 X194.273 Y86.122 E34.94741
G1 X194.793 Y86.661 E34.97232
G1 X195.252 Y87.251 E34.99718
G1 X195.662 Y87.917 E35.02319
G1 X195.821 Y88.211 E35.03431
G1 X196.141 Y88.887 E35.05919
G1 X196.388 Y89.594 E35.08409
G1 X196.557 Y90.322 E35.10895
G1 X196.648 Y91.065 E35.13385
G1 X196.664 Y91.541 E35.14969
G1 X196.664 Y96.152 E35.30305
G1 X196.624 Y96.899 E35.32793
G1 X196.505 Y97.637 E35.3528
G1 X196.307 Y98.359 E35.3777
G1 X196.034 Y99.055 E35.40256
G1 X195.687 Y99.718 E35.42745
G1 X195.272 Y100.341 E35.45235
G1 X194.793 Y100.915 E35.47721
G1 X194.256 Y101.436 E35.5021
G1 X193.666 Y101.895 E35.52696
G1 X193.03 Y102.29 E35.55186
G1 X192.356 Y102.614 E35.57674
G1 X191.651 Y102.864 E35.60162
G1 X190.923 Y103.038 E35.62651
G1 X190.181 Y103.133 E35.65139
G1 X189.664 Y103.152 E35.6686
G1 X45.336 Y103.152 E40.46897
G1 X44.589 Y103.112 E40.49385
G1 X43.851 Y102.993 E40.51871
G1 X43.129 Y102.795 E40.54361
G1 X42.433 Y102.522 E40.56848
G1 X41.77 Y102.175 E40.59337
G1 X41.147 Y101.76 E40.61826
G1 X40.573 Y101.281 E40.64313
G1 X40.052 Y100.744 E40.66802
G1 X39.593 Y100.154 E40.69288
G1 X39.198 Y99.518 E40.71778
G1 X38.874 Y98.844 E40.74265
G1 X38.624 Y98.139 E40.76753
G1 X38.45 Y97.411 E40.79243
G1 X38.355 Y96.669 E40.81731
G1 X38.336 Y96.149 E40.83461
G1 X38.338 Y91.486 E40.98971
G1 X38.378 Y90.739 E41.01459
G1 X38.498 Y90.001 E41.03946
G1 X38.696 Y89.279 E41.06436
G1 X38.97 Y88.583 E41.08923
G1 X39.275 Y87.991 E41.11138
G1 X39.425 Y87.731 E41.12137
G1 X39.833 Y87.104 E41.14625
G1 X40.305 Y86.524 E41.17112
G1 X40.837 Y85.998 E41.196
G1 X41.422 Y85.531 E41.2209
G1 X42.053 Y85.13 E41.24577
G1 X42.586 Y84.866 E41.26555
G1 X42.587 Y63.063 E41.99072
G1 X42.612 Y62.373 E42.01368
G1 X42.663 Y61.8 E42.03282
G1 X42.71 Y61.441 E42.04486
G1 X42.807 Y60.879 E42.06383
G1 X42.893 Y60.479 E42.07744
G1 X43.04 Y59.913 E42.09689
G1 X43.162 Y59.512 E42.11083
G1 X43.355 Y58.961 E42.13024
G1 X43.503 Y58.589 E42.14356
G1 X43.74 Y58.058 E42.1629
G1 X43.961 Y57.614 E42.1794
G1 X44.389 Y56.873 E42.20786
G1 X44.666 Y56.454 E42.22456
G1 X45.011 Y55.976 E42.24417
G1 X45.236 Y55.691 E42.25625
G1 X45.596 Y55.271 E42.27465
G1 X46.047 Y54.792 E42.29653
G0 F6000 X46.33 Y55.074
G1 F1200 X73.671 Y27.74 E43.5824
G1 X74.05 Y27.39 E43.59956
G1 X74.311 Y27.167 E43.61098
G1 X74.731 Y26.836 E43.62876
G1 X75.045 Y26.609 E43.64165
G1 X75.497 Y26.31 E43.65968
G1 X75.841 Y26.102 E43.67305
G1 X76.325 Y25.837 E43.6914
G1 X76.678 Y25.662 E43.7045
G1 X77.153 Y25.449 E43.72182
G1 X77.622 Y25.261 E43.73862
G1 X78.418 Y24.999 E43.7665
G1 X78.926 Y24.867 E43.78395
G1 X79.471 Y24.75 E43.80249
G1 X79.856 Y24.684 E43.81548
G1 X80.388 Y24.615 E43.83333
G1 X80.794 Y24.579 E43.84688
G1 X81.378 Y24.553 E43.86633
G1 X153.692 Y24.559 E46.2715
G1 X154.275 Y24.585 E46.29091
G1 X154.613 Y24.615 E46.3022
G1 X155.144 Y24.684 E46.32001
G1 X155.529 Y24.75 E46.333
G1 X156.074 Y24.867 E46.35154
G1 X156.582 Y24.999 E46.369
G1 X157.375 Y25.26 E46.39676
G1 X157.842 Y25.447 E46.41349
G1 X158.321 Y25.661 E46.43094
G1 X158.676 Y25.837 E46.44412
G1 X159.173 Y26.111 E46.463
G1 X159.599 Y26.37 E46.47958
G1 X160.238 Y26.811 E46.5054
G1 X160.606 Y27.099 E46.52095
G1 X161.028 Y27.459 E46.53939
G1 X161.497 Y27.901 E46.56083
G1 X188.82 Y55.225 E47.84604
G1 X189.222 Y55.665 E47.86587
G1 X189.478 Y55.972 E47.87916
G1 X189.791 Y56.378 E47.89621
G1 X190.075 Y56.778 E47.91253
G1 X190.523 Y57.505 E47.94093
G1 X190.817 Y58.059 E47.96179
G1 X191.151 Y58.794 E47.98864
G1 X191.329 Y59.259 E48.0052
G1 X191.505 Y59.785 E48.02365
G1 X191.616 Y60.169 E48.03695
G1 X191.741 Y60.674 E48.05425
G1 X191.84 Y61.156 E48.07062
G1 X191.954 Y61.959 E48.09759
G1 X191.989 Y62.398 E48.11224
G1 X192.01 Y62.922 E48.12968
G1 X192.013 Y85.152 E48.86905
G1 X192.268 Y85.253 E48.87818
G1 X192.909 Y85.593 E48.90231
G1 X193.51 Y86.001 E48.92647
G1 X194.062 Y86.473 E48.95063
G1 X194.559 Y87.003 E48.97479
G1 X194.995 Y87.584 E48.99895
G1 X195.31 Y88.107 E49.01926
G1 X195.469 Y88.401 E49.03038
G1 X195.779 Y89.058 E49.05454
G1 X196.015 Y89.745 E49.0787
G1 X196.174 Y90.454 E49.10286
G1 X196.254 Y91.176 E49.12703
G1 X196.264 Y91.541 E49.13917
G1 X196.264 Y96.152 E49.29253
G1 X196.224 Y96.877 E49.31668
G1 X196.105 Y97.594 E49.34086
G1 X195.907 Y98.293 E49.36502
G1 X195.634 Y98.966 E49.38918
G1 X195.289 Y99.605 E49.41333
G1 X194.875 Y100.202 E49.43749
G1 X194.399 Y100.75 E49.46163
G1 X193.865 Y101.243 E49.48581
G1 X193.28 Y101.673 E49.50996
G1 X192.651 Y102.037 E49.53413
G1 X191.986 Y102.33 E49.5583
G1 X191.293 Y102.548 E49.58246
G1 X190.581 Y102.688 E49.60659
G1 X189.664 Y102.752 E49.63717
G1 X45.336 Y102.752 E54.43754
G1 X44.611 Y102.712 E54.46169
G1 X43.894 Y102.593 E54.48586
G1 X43.195 Y102.395 E54.51002
G1 X42.522 Y102.122 E54.53418
G1 X41.883 Y101.777 E54.55833
G1 X41.286 Y101.363 E54.5825
G1 X40.738 Y100.887 E54.60664
G1 X40.245 Y100.353 E54.63081
G1 X39.815 Y99.768 E54.65496
G1 X39.451 Y99.139 E54.67913
G1 X39.158 Y98.474 E54.7033
G1 X38.94 Y97.781 E54.72746
G1 X38.8 Y97.069 E54.7516
G1 X38.736 Y96.149 E54.78227
G1 X38.738 Y91.486 E54.93736
G1 X38.778 Y90.761 E54.96151
G1 X38.898 Y90.045 E54.98566
G1 X39.096 Y89.346 E55.00982
G1 X39.369 Y88.673 E55.03398
G1 X39.621 Y88.191 E55.05207
G1 X39.771 Y87.931 E55.06205
G1 X40.168 Y87.323 E55.0862
G1 X40.63 Y86.762 E55.11038
G1 X41.15 Y86.255 E55.13453
G1 X41.723 Y85.808 E55.1587
G1 X42.341 Y85.427 E55.18285
G1 X42.986 Y85.123 E55.20657
G1 X42.987 Y63.063 E55.94028
G1 X43.012 Y62.392 E55.96262
G1 X43.06 Y61.852 E55.98065
G1 X43.107 Y61.493 E55.99269
G1 X43.198 Y60.963 E56.01058
G1 X43.284 Y60.563 E56.02418
G1 X43.423 Y60.029 E56.04254
G1 X43.545 Y59.628 E56.05648
G1 X43.727 Y59.109 E56.07477
G1 X43.875 Y58.737 E56.08809
G1 X44.098 Y58.236 E56.10633
G1 X44.319 Y57.792 E56.12282
G1 X44.722 Y57.093 E56.14966
G1 X44.999 Y56.674 E56.16636
G1 X45.325 Y56.224 E56.18485
G1 X45.55 Y55.939 E56.19692
G1 X45.889 Y55.543 E56.21426
G1 X46.33 Y55.074 E56.23567
G0 F6000 X46.612 Y55.357
G1 F1200 X73.953 Y28.023 E57.52155
G1 X74.31 Y27.694 E57.53769
G1 X74.571 Y27.471 E57.54911
G1 X74.966 Y27.16 E57.56583
