;FLAVOR:Marlin
;TIME:7109
;Filament used: 7.82638m
;Layer height: 0.2
;MINX:37.536
;MINY:21.03
;MINZ:0.2
;MAXX:197.464
;MAXY:105.63
;MAXZ:9
;Generated with Cura_SteamEngine 5.2.2
M140 S60
M105
M190 S60
M104 S205
M105
M109 S205
M82 ;absolute extrusion mode
; Ender 3 Custom Start G-code
G92 E0 ; Reset Extruder
G28 ; Home all axes
G1 Z2.0 F3000 ; Move Z Axis up little to prevent scratching of Heat Bed
G1 X0.1 Y20 Z0.3 F5000.0 ; Move to start position
G1 X0.1 Y200.0 Z0.3 F1500.0 E15 ; Draw the first line
G1 X0.4 Y200.0 Z0.3 F5000.0 ; Move to side a little
G1 X0.4 Y20 Z0.3 F1500.0 E30 ; Draw the second line
G92 E0 ; Reset Extruder
G1 Z2.0 F3000 ; Move Z Axis up little to prevent scratching of Heat Bed
G1 X5 Y20 Z0.3 F5000.0 ; Move over to prevent blob squish
G92 E0
G92 E0
G1 F2700 E-5
;LAYER_COUNT:45
;LAYER:0
M107
G0 F6000 X40.07 Y55.659 Z0.2
;TYPE:SKIRT
G1 F2700 E0
G1 F1200 X72.413 Y23.315 E1.52134
G1 X72.999 Y22.785 E1.54762
G1 X73.636 Y22.318 E1.57389
G1 X74.316 Y21.917 E1.60015
G1 X75.034 Y21.587 E1.62643
G1 X75.781 Y21.332 E1.65268
G1 X76.55 Y21.153 E1.67894
G1 X77.334 Y21.053 E1.70523
G1 X77.929 Y21.03 E1.72503
G1 X157.071 Y21.03 E4.35731
G1 X157.86 Y21.07 E4.38358
G1 X158.64 Y21.189 E4.40983
G1 X159.405 Y21.387 E4.43611
G1 X160.145 Y21.661 E4.46235
G1 X160.854 Y22.009 E4.48862
G1 X161.525 Y22.427 E4.51492
G1 X162.149 Y22.91 E4.54116
G1 X162.587 Y23.315 E4.561
G1 X194.93 Y55.659 E6.08234
G1 X195.459 Y56.245 E6.1086
G1 X195.926 Y56.881 E6.13484
G1 X196.327 Y57.562 E6.16113
G1 X196.657 Y58.279 E6.18738
G1 X196.912 Y59.026 E6.21363
G1 X197.091 Y59.795 E6.23989
G1 X197.191 Y60.579 E6.26618
G1 X197.214 Y61.172 E6.28592
G1 X197.224 Y91.338 E7.28925
G1 X197.385 Y92.163 E7.3172
G1 X197.459 Y93.223 E7.35254
G1 X197.464 Y97.822 E7.50551
G1 X197.425 Y98.61 E7.53175
G1 X197.306 Y99.391 E7.55802
G1 X197.109 Y100.156 E7.5843
G1 X196.836 Y100.897 E7.61056
G1 X196.489 Y101.606 E7.63682
G1 X196.072 Y102.277 E7.66309
G1 X195.59 Y102.902 E7.68935
G1 X195.047 Y103.475 E7.7156
G1 X194.448 Y103.99 E7.74188
G1 X193.801 Y104.443 E7.76814
G1 X193.111 Y104.827 E7.79441
G1 X192.386 Y105.14 E7.82067
G1 X191.633 Y105.377 E7.84693
G1 X190.86 Y105.538 E7.87319
G1 X190.074 Y105.619 E7.89947
G1 X189.664 Y105.63 E7.91311
G1 X45.336 Y105.63 E12.71348
G1 X44.547 Y105.59 E12.73976
G1 X43.767 Y105.471 E12.766
G1 X43.002 Y105.273 E12.79228
G1 X42.262 Y104.999 E12.81853
G1 X41.553 Y104.651 E12.8448
G1 X40.882 Y104.233 E12.87109
G1 X40.258 Y103.75 E12.89734
G1 X39.685 Y103.207 E12.92359
G1 X39.17 Y102.608 E12.94987
G1 X38.719 Y101.96 E12.97613
G1 X38.335 Y101.269 E13.00242
G1 X38.023 Y100.544 E13.02867
G1 X37.786 Y99.791 E13.05493
G1 X37.627 Y99.017 E13.08121
G1 X37.546 Y98.232 E13.10746
G1 X37.536 Y97.825 E13.121
G1 X37.539 Y93.248 E13.27323
G1 X37.579 Y92.459 E13.2995
G1 X37.7 Y91.679 E13.32576
G1 X37.786 Y91.324 E13.33791
G1 X37.786 Y61.174 E14.3407
G1 X37.826 Y60.385 E14.36698
G1 X37.945 Y59.605 E14.39322
G1 X38.143 Y58.84 E14.4195
G1 X38.417 Y58.1 E14.44575
G1 X38.765 Y57.391 E14.47202
G1 X39.183 Y56.72 E14.49831
G1 X39.666 Y56.096 E14.52455
G1 X40.07 Y55.659 E14.54435
G0 F6000 X40.353 Y55.941
G1 F1200 X72.696 Y23.597 E16.06569
G1 X73.268 Y23.083 E16.09127
G1 X73.889 Y22.63 E16.11683
G1 X74.555 Y22.244 E16.14243
G1 X75.257 Y21.929 E16.16803
G1 X75.987 Y21.689 E16.19358
G1 X76.739 Y21.526 E16.21918
G1 X77.504 Y21.442 E16.24477
G1 X77.929 Y21.43 E16.25891
G1 X157.071 Y21.43 E18.89119
G1 X157.839 Y21.47 E18.91677
G1 X158.599 Y21.589 E18.94235
G1 X159.342 Y21.787 E18.96793
G1 X160.061 Y22.061 E18.99352
G1 X160.747 Y22.408 E19.01909
G1 X161.394 Y22.824 E19.04467
G1 X161.994 Y23.305 E19.07025
G1 X162.304 Y23.597 E19.08441
G1 X194.647 Y55.941 E20.60575
G1 X195.162 Y56.513 E20.63135
G1 X195.614 Y57.135 E20.65693
G1 X196 Y57.8 E20.6825
G1 X196.315 Y58.502 E20.70809
G1 X196.555 Y59.233 E20.73368
G1 X196.718 Y59.984 E20.75924
G1 X196.802 Y60.749 E20.78484
G1 X196.814 Y61.172 E20.79891
G1 X196.824 Y91.398 E21.80423
G1 X196.854 Y91.501 E21.8078
G1 X196.995 Y92.257 E21.83338
G1 X197.059 Y93.223 E21.86558
G1 X197.064 Y97.822 E22.01854
G1 X197.025 Y98.59 E22.04412
G1 X196.906 Y99.35 E22.06971
G1 X196.709 Y100.094 E22.0953
G1 X196.436 Y100.813 E22.12088
G1 X196.09 Y101.5 E22.14647
G1 X195.674 Y102.147 E22.17205
G1 X195.194 Y102.747 E22.19761
G1 X194.654 Y103.295 E22.2232
G1 X194.059 Y103.783 E22.24879
G1 X193.418 Y104.207 E22.27435
G1 X192.736 Y104.562 E22.29993
G1 X192.02 Y104.845 E22.32553
G1 X191.279 Y105.052 E22.35112
G1 X190.521 Y105.18 E22.37669
G1 X189.664 Y105.23 E22.40524
G1 X45.336 Y105.23 E27.20561
G1 X44.568 Y105.19 E27.23119
G1 X43.808 Y105.071 E27.25677
G1 X43.065 Y104.873 E27.28235
G1 X42.346 Y104.599 E27.30794
G1 X41.66 Y104.252 E27.33351
G1 X41.013 Y103.836 E27.35909
G1 X40.413 Y103.355 E27.38467
G1 X39.866 Y102.814 E27.41026
G1 X39.378 Y102.219 E27.43585
G1 X38.955 Y101.577 E27.46143
G1 X38.6 Y100.894 E27.48703
G1 X38.319 Y100.179 E27.51258
G1 X38.113 Y99.437 E27.53819
G1 X37.985 Y98.679 E27.56376
G1 X37.936 Y97.825 E27.59221
G1 X37.939 Y93.248 E27.74444
G1 X37.979 Y92.48 E27.77002
G1 X38.099 Y91.72 E27.79561
G1 X38.186 Y91.368 E27.80767
G1 X38.186 Y61.174 E28.81193
G1 X38.226 Y60.406 E28.83751
G1 X38.345 Y59.646 E28.86309
G1 X38.543 Y58.903 E28.88867
G1 X38.817 Y58.184 E28.91426
G1 X39.164 Y57.498 E28.93983
G1 X39.58 Y56.851 E28.96541
G1 X40.061 Y56.251 E28.99099
G1 X40.353 Y55.941 E29.00515
G0 F6000 X40.636 Y56.224
G1 F1200 X72.979 Y23.88 E30.52649
G1 X73.536 Y23.38 E30.55139
G1 X74.142 Y22.943 E30.57624
G1 X74.792 Y22.572 E30.60113
G1 X75.478 Y22.273 E30.62602
G1 X76.192 Y22.049 E30.65091
G1 X76.925 Y21.902 E30.67577
G1 X77.929 Y21.83 E30.70925
G1 X157.071 Y21.83 E33.34153
G1 X157.818 Y21.87 E33.36641
G1 X158.556 Y21.989 E33.39127
G1 X159.278 Y22.187 E33.41617
G1 X159.974 Y22.46 E33.44104
G1 X160.637 Y22.807 E33.46593
G1 X161.26 Y23.222 E33.49082
G1 X162.021 Y23.88 E33.52428
G1 X194.364 Y56.224 E35.04562
G1 X194.864 Y56.781 E35.07052
G1 X195.301 Y57.387 E35.09537
G1 X195.672 Y58.037 E35.12026
G1 X195.971 Y58.723 E35.14515
G1 X196.195 Y59.437 E35.17004
G1 X196.342 Y60.17 E35.1949
G1 X196.414 Y61.172 E35.22832
G1 X196.424 Y91.457 E36.2356
G1 X196.47 Y91.614 E36.24104
G1 X196.603 Y92.35 E36.26592
G1 X196.659 Y93.223 E36.29501
G1 X196.664 Y97.822 E36.44798
G1 X196.625 Y98.569 E36.47285
G1 X196.506 Y99.308 E36.49775
G1 X196.309 Y100.03 E36.52264
G1 X196.037 Y100.726 E36.5475
G1 X195.691 Y101.39 E36.5724
G1 X195.277 Y102.013 E36.59728
G1 X194.799 Y102.588 E36.62215
G1 X194.261 Y103.109 E36.64706
G1 X193.672 Y103.569 E36.67191
G1 X193.037 Y103.964 E36.69679
G1 X192.363 Y104.289 E36.72167
G1 X191.658 Y104.54 E36.74657
G1 X190.931 Y104.714 E36.77143
G1 X190.189 Y104.81 E36.79631
G1 X189.664 Y104.83 E36.81379
G1 X45.336 Y104.83 E41.61416
G1 X44.589 Y104.79 E41.63904
G1 X43.851 Y104.671 E41.6639
G1 X43.129 Y104.473 E41.6888
G1 X42.433 Y104.2 E41.71367
G1 X41.77 Y103.853 E41.73856
G1 X41.147 Y103.438 E41.76345
G1 X40.573 Y102.959 E41.78832
G1 X40.052 Y102.422 E41.8132
G1 X39.593 Y101.832 E41.83807
G1 X39.198 Y101.196 E41.86297
G1 X38.874 Y100.522 E41.88784
G1 X38.624 Y99.817 E41.91272
G1 X38.45 Y99.089 E41.93761
G1 X38.355 Y98.347 E41.9625
G1 X38.336 Y97.825 E41.97987
G1 X38.339 Y93.248 E42.1321
G1 X38.379 Y92.501 E42.15698
G1 X38.499 Y91.763 E42.18185
G1 X38.586 Y91.415 E42.19378
G1 X38.586 Y61.174 E43.1996
G1 X38.626 Y60.427 E43.22448
G1 X38.745 Y59.689 E43.24934
G1 X38.943 Y58.967 E43.27424
G1 X39.216 Y58.271 E43.29911
G1 X39.563 Y57.608 E43.324
G1 X39.978 Y56.985 E43.3489
G1 X40.636 Y56.224 E43.38236
G0 F6000 X40.919 Y56.507
G1 F1200 X73.262 Y24.163 E44.9037
G1 X73.803 Y23.679 E44.92784
G1 X74.394 Y23.256 E44.95201
G1 X75.028 Y22.902 E44.97616
G1 X75.697 Y22.619 E45.00032
G1 X76.393 Y22.411 E45.02449
G1 X77.108 Y22.281 E45.04866
G1 X77.929 Y22.23 E45.07602
G1 X157.071 Y22.23 E47.70829
G1 X157.796 Y22.27 E47.73244
G1 X158.513 Y22.389 E47.75661
G1 X159.212 Y22.587 E47.78078
G1 X159.885 Y22.86 E47.80493
G1 X160.524 Y23.205 E47.82909
G1 X161.121 Y23.619 E47.85325
G1 X161.738 Y24.163 E47.88061
G1 X194.081 Y56.507 E49.40195
G1 X194.566 Y57.048 E49.42611
G1 X194.988 Y57.639 E49.45027
G1 X195.342 Y58.273 E49.47442
G1 X195.625 Y58.942 E49.49858
G1 X195.833 Y59.638 E49.52274
G1 X195.963 Y60.353 E49.54691
G1 X196.014 Y61.172 E49.5742
G1 X196.024 Y91.517 E50.58348
G1 X196.085 Y91.727 E50.59075
G1 X196.212 Y92.442 E50.61491
G1 X196.259 Y93.224 E50.64096
G1 X196.264 Y97.823 E50.79393
G1 X196.225 Y98.548 E50.81808
G1 X196.106 Y99.265 E50.84225
G1 X195.909 Y99.964 E50.8664
G1 X195.637 Y100.637 E50.89055
G1 X195.293 Y101.277 E50.91471
G1 X194.88 Y101.874 E50.93886
G1 X194.404 Y102.423 E50.96303
G1 X193.87 Y102.916 E50.9872
G1 X193.286 Y103.347 E51.01134
G1 X192.658 Y103.712 E51.0355
G1 X191.993 Y104.005 E51.05967
G1 X191.3 Y104.224 E51.08384
G1 X190.588 Y104.365 E51.10798
G1 X189.664 Y104.43 E51.13879
G1 X45.336 Y104.43 E55.93916
G1 X44.611 Y104.39 E55.96331
G1 X43.894 Y104.271 E55.98748
G1 X43.195 Y104.073 E56.01165
G1 X42.522 Y103.8 E56.0358
G1 X41.883 Y103.455 E56.05996
G1 X41.286 Y103.041 E56.08412
G1 X40.738 Y102.565 E56.10826
G1 X40.245 Y102.031 E56.13243
G1 X39.815 Y101.446 E56.15658
G1 X39.451 Y100.817 E56.18075
G1 X39.158 Y100.152 E56.20492
G1 X38.94 Y99.459 E56.22909
G1 X38.8 Y98.747 E56.25322
G1 X38.736 Y97.826 E56.28393
G1 X38.739 Y93.249 E56.43616
G1 X38.779 Y92.523 E56.46034
G1 X38.986 Y91.464 E56.49623
G1 X38.986 Y61.174 E57.50368
G1 X39.026 Y60.449 E57.52783
G1 X39.145 Y59.732 E57.552
G1 X39.343 Y59.033 E57.57617
G1 X39.616 Y58.36 E57.60032
G1 X39.961 Y57.721 E57.62448
G1 X40.375 Y57.124 E57.64864
G1 X40.919 Y56.507 E57.676
G0 F6000 X41.202 Y56.79
G1 F1200 X73.545 Y24.446 E59.19734
G1 X74.07 Y23.977 E59.22075
G1 X74.645 Y23.571 E59.24416
G1 X75.262 Y23.233 E59.26756
G1 X75.914 Y22.967 E59.29098
G1 X76.592 Y22.776 E59.31441
G1 X77.287 Y22.663 E59.33783
G1 X77.929 Y22.63 E59.35921
G1 X157.071 Y22.63 E61.99149
G1 X157.774 Y22.67 E62.01491
G1 X158.468 Y22.789 E62.03833
G1 X159.143 Y22.987 E62.06172
G1 X159.792 Y23.259 E62.08513
G1 X160.406 Y23.604 E62.10855
G1 X160.977 Y24.015 E62.13195
G1 X161.455 Y24.446 E62.15336
G1 X193.798 Y56.79 E63.6747
G1 X194.267 Y57.315 E63.69811
G1 X194.673 Y57.89 E63.72152
G1 X195.011 Y58.508 E63.74495
G1 X195.278 Y59.159 E63.76835
G1 X195.468 Y59.837 E63.79177
G1 X195.581 Y60.532 E63.81519
G1 X195.614 Y61.172 E63.83651
G1 X195.624 Y91.574 E64.84768
G1 X195.701 Y91.839 E64.85686
G1 X195.82 Y92.533 E64.88028
G1 X195.859 Y93.224 E64.9033
G1 X195.864 Y97.823 E65.05626
G1 X195.825 Y98.526 E65.07968
G1 X195.706 Y99.22 E65.1031
G1 X195.51 Y99.896 E65.12651
G1 X195.238 Y100.545 E65.14991
G1 X194.894 Y101.16 E65.17335
G1 X194.483 Y101.731 E65.19675
G1 X194.009 Y102.252 E65.22018
G1 X193.48 Y102.716 E65.24358
G1 X192.902 Y103.118 E65.267
G1 X192.281 Y103.45 E65.29042
G1 X191.627 Y103.711 E65.31384
G1 X190.948 Y103.896 E65.33725
G1 X190.252 Y104.002 E65.36066
G1 X189.664 Y104.03 E65.38024
G1 X45.336 Y104.03 E70.18061
G1 X44.633 Y103.99 E70.20403
G1 X43.939 Y103.871 E70.22745
G1 X43.264 Y103.673 E70.25085
G1 X42.615 Y103.401 E70.27425
G1 X42.001 Y103.056 E70.29768
G1 X41.43 Y102.645 E70.32108
G1 X40.909 Y102.171 E70.3445
G1 X40.445 Y101.641 E70.36793
G1 X40.045 Y101.062 E70.39134
G1 X39.713 Y100.441 E70.41476
G1 X39.453 Y99.787 E70.43817
G1 X39.269 Y99.107 E70.4616
G1 X39.163 Y98.411 E70.48501
G1 X39.136 Y97.826 E70.50449
G1 X39.139 Y93.249 E70.65672
G1 X39.179 Y92.546 E70.68014
G1 X39.368 Y91.582 E70.71282
G1 X39.386 Y91.518 E70.71503
G1 X39.386 Y61.174 E71.72427
G1 X39.426 Y60.471 E71.74769
G1 X39.545 Y59.777 E71.77111
G1 X39.743 Y59.102 E71.79451
G1 X40.015 Y58.453 E71.81791
G1 X40.36 Y57.839 E71.84134
G1 X40.771 Y57.268 E71.86474
G1 X41.202 Y56.79 E71.88614
G0 F6000 X41.485 Y57.073
G1 F1200 X73.828 Y24.729 E73.40748
G1 X74.337 Y24.276 E73.43015
G1 X74.895 Y23.887 E73.45277
G1 X75.495 Y23.565 E73.47542
G1 X76.129 Y23.316 E73.49807
G1 X76.787 Y23.143 E73.5207
G1 X77.462 Y23.049 E73.54337
G1 X77.929 Y23.03 E73.55892
G1 X157.071 Y23.03 E76.19119
G1 X157.751 Y23.07 E76.21384
G1 X158.421 Y23.189 E76.23648
G1 X159.073 Y23.386 E76.25913
G1 X159.697 Y23.658 E76.28177
G1 X160.285 Y24.002 E76.30443
G1 X160.829 Y24.412 E76.32709
G1 X161.172 Y24.729 E76.34262
G1 X193.515 Y57.073 E77.86396
G1 X193.968 Y57.582 E77.88662
G1 X194.357 Y58.14 E77.90925
G1 X194.679 Y58.74 E77.9319
G1 X194.928 Y59.374 E77.95455
G1 X195.101 Y60.033 E77.97721
G1 X195.195 Y60.707 E77.99985
G1 X195.214 Y61.172 E78.01532
G1 X195.224 Y91.631 E79.0284
G1 X195.316 Y91.951 E79.03947
G1 X195.427 Y92.623 E79.06212
G1 X195.459 Y93.225 E79.08217
G1 X195.464 Y97.824 E79.23514
G1 X195.425 Y98.503 E79.25776
G1 X195.306 Y99.174 E79.28042
G1 X195.11 Y99.826 E79.30307
G1 X194.838 Y100.45 E79.32571
G1 X194.496 Y101.039 E79.34836
G1 X194.086 Y101.583 E79.37102
G1 X193.616 Y102.075 E79.39365
G1 X193.091 Y102.509 E79.41631
G1 X192.519 Y102.878 E79.43895
G1 X191.908 Y103.178 E79.46158
G1 X191.266 Y103.404 E79.48422
G1 X190.602 Y103.554 E79.50686
G1 X189.664 Y103.63 E79.53816
G1 X45.336 Y103.63 E84.33853
G1 X44.656 Y103.59 E84.36119
G1 X43.986 Y103.471 E84.38382
G1 X43.334 Y103.274 E84.40648
G1 X42.71 Y103.002 E84.42912
G1 X42.122 Y102.658 E84.45177
G1 X41.578 Y102.248 E84.47443
G1 X41.087 Y101.777 E84.49706
G1 X40.653 Y101.252 E84.51972
G1 X40.284 Y100.68 E84.54236
G1 X39.985 Y100.068 E84.56501
G1 X39.76 Y99.426 E84.58764
G1 X39.611 Y98.761 E84.6103
G1 X39.536 Y97.826 E84.6415
G1 X39.539 Y93.249 E84.79373
G1 X39.579 Y92.57 E84.81636
G1 X39.754 Y91.69 E84.8462
G1 X39.786 Y91.576 E84.85014
G1 X39.786 Y61.174 E85.86131
G1 X39.826 Y60.494 E85.88397
G1 X39.945 Y59.824 E85.9066
G1 X40.142 Y59.172 E85.92925
G1 X40.414 Y58.548 E85.95189
G1 X40.758 Y57.96 E85.97455
G1 X41.168 Y57.416 E85.99721
G1 X41.485 Y57.073 E86.01274
G0 F6000 X41.768 Y57.356
G1 F1200 X74.111 Y25.012 E87.53408
G1 X74.602 Y24.576 E87.55592
G1 X75.144 Y24.204 E87.57779
G1 X75.726 Y23.9 E87.59963
G1 X76.341 Y23.669 E87.62148
G1 X76.98 Y23.514 E87.64334
G1 X77.929 Y23.43 E87.67503
G1 X157.071 Y23.43 E90.30731
G1 X157.727 Y23.47 E90.32917
G1 X158.373 Y23.589 E90.35101
G1 X159 Y23.786 E90.37287
G1 X159.598 Y24.058 E90.39472
G1 X160.159 Y24.4 E90.41657
G1 X160.889 Y25.012 E90.44826
G1 X193.232 Y57.356 E91.9696
G1 X193.668 Y57.848 E91.99146
G1 X194.04 Y58.389 E92.0133
G1 X194.344 Y58.971 E92.03514
G1 X194.575 Y59.586 E92.05699
G1 X194.73 Y60.225 E92.07886
G1 X194.814 Y61.172 E92.11048
G1 X194.824 Y91.687 E93.12541
G1 X194.931 Y92.062 E93.13838
G1 X195.034 Y92.711 E93.16024
G1 X195.059 Y93.225 E93.17735
G1 X195.064 Y97.824 E93.33032
G1 X195.025 Y98.48 E93.35218
G1 X194.906 Y99.126 E93.37402
G1 X194.71 Y99.753 E93.39587
G1 X194.439 Y100.352 E93.41774
G1 X194.098 Y100.913 E93.43957
G1 X193.69 Y101.428 E93.46143
G1 X193.224 Y101.891 E93.48328
G1 X192.704 Y102.293 E93.50514
G1 X192.14 Y102.629 E93.52697
G1 X191.539 Y102.894 E93.54882
G1 X190.91 Y103.084 E93.57067
G1 X190.263 Y103.197 E93.59252
G1 X189.664 Y103.23 E93.61247
G1 X45.336 Y103.23 E98.41284
G1 X44.68 Y103.19 E98.4347
G1 X44.034 Y103.071 E98.45655
G1 X43.407 Y102.874 E98.47841
G1 X42.809 Y102.602 E98.50026
G1 X42.248 Y102.26 E98.52211
G1 X41.733 Y101.852 E98.54396
G1 X41.271 Y101.385 E98.56581
G1 X40.87 Y100.865 E98.58765
G1 X40.534 Y100.301 E98.60949
G1 X40.27 Y99.699 E98.63135
G1 X40.08 Y99.07 E98.6532
G1 X39.969 Y98.423 E98.67504
G1 X39.936 Y97.826 E98.69492
G1 X39.939 Y93.249 E98.84716
G1 X39.979 Y92.594 E98.86898
G1 X40.139 Y91.798 E98.89599
G1 X40.186 Y91.63 E98.90179
G1 X40.186 Y61.174 E99.91476
G1 X40.226 Y60.518 E99.93662
G1 X40.345 Y59.872 E99.95847
G1 X40.542 Y59.245 E99.98033
G1 X40.814 Y58.647 E100.00218
G1 X41.156 Y58.086 E100.02403
G1 X41.768 Y57.356 E100.05571
G0 F6000 X42.05 Y57.639
G1 F1200 X74.393 Y25.295 E101.57705
G1 X74.868 Y24.877 E101.5981
G1 X75.391 Y24.522 E101.61912
G1 X75.955 Y24.236 E101.64015
G1 X76.55 Y24.024 E101.66116
G1 X77.168 Y23.888 E101.68221
G1 X77.929 Y23.83 E101.70759
G1 X157.071 Y23.83 E104.33987
G1 X157.702 Y23.87 E104.3609
G1 X158.323 Y23.989 E104.38193
G1 X158.923 Y24.186 E104.40293
G1 X159.495 Y24.457 E104.42398
